icons/yang.svg

<svg width="16" height="16" viewBox="0 0 16 16" fill="none" xmlns="http://www.w3.org/2000/svg">
<path d="M7.81348 14.4814C7.79847 14.4807 7.78351 14.4795 7.76855 14.4785C4.29351 14.3566 1.51368 11.5048 1.51367 8C1.51367 4.41771 4.41771 1.51368 8 1.51367L8.18652 1.51856C8.20187 1.51933 8.21712 1.52149 8.23242 1.52246C11.707 1.64488 14.4863 4.49557 14.4863 8C14.4863 11.5823 11.5823 14.4863 8 14.4863L7.81348 14.4814ZM8 6.08789C8.52801 6.08789 8.95605 5.65985 8.95605 5.13184C8.95605 4.60382 8.52801 4.17578 8 4.17578C7.47199 4.17578 7.04395 4.60383 7.04394 5.13184C7.04394 5.65985 7.47199 6.08789 8 6.08789ZM8 12.9863C10.7539 12.9863 12.9863 10.7539 12.9863 8C12.9863 6.64369 12.4441 5.41456 11.5654 4.51563C11.5663 4.52079 11.5665 4.52608 11.5674 4.53125C11.5828 4.62358 11.5952 4.71696 11.6035 4.81152C11.6043 4.8203 11.6048 4.8291 11.6055 4.83789C11.6133 4.93487 11.6182 5.03285 11.6182 5.13184C11.6182 7.13008 9.99824 8.74999 8 8.75C6.83018 8.75001 5.88184 9.69834 5.88184 10.8682C5.88185 12.038 6.83019 12.9863 8 12.9863ZM8 11.8242C7.47199 11.8242 7.04395 11.3962 7.04394 10.8682C7.04394 10.3402 7.47199 9.91211 8 9.91211C8.52801 9.91211 8.95605 10.3402 8.95605 10.8682C8.95605 11.3962 8.52801 11.8242 8 11.8242Z" fill="#909090" fill-opacity="0.9"/>
</svg>

<svg xmlns="http://www.w3.org/2000/svg" width="16" height="16" fill="none" viewBox="0 0 16 16"><path fill="#909090" fill-opacity=".9" d="m7.813 14.481-.044-.002A6.483 6.483 0 0 1 1.514 8 6.486 6.486 0 0 1 8 1.514l.187.005.045.003A6.48 6.48 0 0 1 14.486 8 6.486 6.486 0 0 1 8 14.486zM8 6.088a.956.956 0 1 0 0-1.912.956.956 0 0 0 0 1.912m0 6.898a4.986 4.986 0 0 0 3.565-8.47l.002.015q.024.14.037.28 0 .014.002.027.011.146.012.294A3.62 3.62 0 0 1 8 8.75a2.118 2.118 0 0 0 0 4.236m0-1.162a.956.956 0 1 1 0-1.912.956.956 0 0 1 0 1.912"/></svg>
